styles/6/Numix/22/places/purple-folder-art.svg

<?xml version="1.0" encoding="UTF-8" standalone="no"?>
<!-- Created with Inkscape (http://www.inkscape.org/) -->

<svg
   xmlns:dc="http://purl.org/dc/elements/1.1/"
   xmlns:cc="http://creativecommons.org/ns#"
   xmlns:rdf="http://www.w3.org/1999/02/22-rdf-syntax-ns#"
   xmlns:svg="http://www.w3.org/2000/svg"
   xmlns="http://www.w3.org/2000/svg"
   xmlns:xlink="http://www.w3.org/1999/xlink"
   xmlns:sodipodi="http://sodipodi.sourceforge.net/DTD/sodipodi-0.dtd"
   xmlns:inkscape="http://www.inkscape.org/namespaces/inkscape"
   width="22"
   height="22"
   id="svg2"
   version="1.1"
   inkscape:version="0.91 r"
   sodipodi:docname="purple-folder-art.svg"
   inkscape:export-filename="/media/Data/Main/Visuals/Icons/Numix/Desktop/repos/numix-wiki/Gjorgi/Numix-folders/48/New/folder-144.png"
   inkscape:export-xdpi="270"
   inkscape:export-ydpi="270">
  <defs
     id="defs4">
    <linearGradient
       inkscape:collect="always"
       id="linearGradient3760">
      <stop
         style="stop-color:#000000;stop-opacity:1;"
         offset="0"
         id="stop3762" />
      <stop
         style="stop-color:#000000;stop-opacity:0;"
         offset="1"
         id="stop3764" />
    </linearGradient>
    <radialGradient
       r="11"
       fy="19"
       fx="11"
       cy="19"
       cx="11"
       gradientTransform="matrix(1,0,0,0.09090909,0,17.272727)"
       gradientUnits="userSpaceOnUse"
       id="radialGradient3783"
       xlink:href="#linearGradient3760"
       inkscape:collect="always" />
  </defs>
  <sodipodi:namedview
     id="base"
     pagecolor="#ffffff"
     bordercolor="#666666"
     borderopacity="1.0"
     inkscape:pageopacity="0.0"
     inkscape:pageshadow="2"
     inkscape:zoom="22.603171"
     inkscape:cx="11.724161"
     inkscape:cy="11.619008"
     inkscape:document-units="px"
     inkscape:current-layer="layer1"
     showgrid="true"
     inkscape:window-width="1280"
     inkscape:window-height="998"
     inkscape:window-x="0"
     inkscape:window-y="0"
     inkscape:window-maximized="1"
     showguides="true"
     inkscape:guide-bbox="true">
    <inkscape:grid
       type="xygrid"
       id="grid2985"
       empspacing="5"
       visible="true"
       enabled="true"
       snapvisiblegridlinesonly="true" />
  </sodipodi:namedview>
  <metadata
     id="metadata7">
    <rdf:RDF>
      <cc:Work
         rdf:about="">
        <dc:format>image/svg+xml</dc:format>
        <dc:type
           rdf:resource="http://purl.org/dc/dcmitype/StillImage" />
        <dc:title />
      </cc:Work>
    </rdf:RDF>
  </metadata>
  <g
     inkscape:label="Layer 1"
     inkscape:groupmode="layer"
     id="layer1"
     transform="translate(0,-1030.3622)">
    <path
       sodipodi:type="arc"
       style="opacity:0.25;fill:url(#radialGradient3783);fill-opacity:1;stroke:none"
       id="path2990"
       sodipodi:cx="11"
       sodipodi:cy="19"
       sodipodi:rx="11"
       sodipodi:ry="1"
       d="m 22,19 c 0,0.552285 -4.924868,1 -11,1 -6.0751322,0 -11,-0.447715 -11,-1 0,-0.552285 4.9248678,-1 11,-1 6.075132,0 11,0.447715 11,1 z"
       transform="matrix(1.1818182,0,0,1,-2,1031.3622)" />
    <path
       sodipodi:nodetypes="ccccccccc"
       inkscape:connector-curvature="0"
       id="path3029"
       d="m 0,1033.3622 0,14 22,0 0,-7 -1,-6 -8,0 -1,-2 -11,0 c -0.5,0 -1,0.5 -1,1 z"
       style="fill:#512da8;fill-opacity:1;stroke:none" />
    <path
       style="opacity:0.02999998;fill:#000000;fill-opacity:1;stroke:none"
       d="m 1,1032.3622 c -0.5,0 -1,0.5 -1,1 l 0,1 c 0,-0.5 0.5,-1 1,-1 l 10,0 1,2 9,0 0,6 0,-1 0,-6 -8,0 -1,-2 z"
       id="path3806"
       inkscape:connector-curvature="0"
       sodipodi:nodetypes="sscsccccccccs" />
    <rect
       style="fill:#fffdf0;fill-opacity:1;stroke:none"
       id="rect3799"
       width="10"
       height="3.9999914"
       x="2"
       y="1035.3622" />
    <path
       style="fill:#7e57c2;fill-opacity:1;stroke:none"
       d="m 22,1035.4289 0,14.9333 -22,0 0,-14 11,0 1,-2 9,0 c 0.5,0 1,0.5333 1,1.0667 z"
       id="rect2987"
       inkscape:connector-curvature="0"
       sodipodi:nodetypes="cccccccc" />
    <path
       sodipodi:nodetypes="ccccc"
       id="path3794"
       d="m 0,1049.3622 0,1 22,0 0,-1 z"
       style="opacity:0.15;fill:#000000;fill-opacity:1;stroke:none"
       inkscape:connector-curvature="0" />
    <path
       style="fill:none;stroke:none"
       d="m 11,1034.8622 -2.5,1.5 1.5,0 z"
       id="path3801"
       inkscape:connector-curvature="0" />
    <path
       style="opacity:0.02999998;fill:#000000;fill-opacity:1;stroke:none"
       d="m 12,1034.3622 -1,2 -11,0 0,1 12,0 1,-2 8,0 c 0.5,0 1,0.5 1,1 l 0,-1 c 0,-0.5 -0.5,-1 -1,-1 z"
       id="path3033"
       inkscape:connector-curvature="0"
       sodipodi:nodetypes="ccccccscssc" />
    <path
       style="fill:#54398d;fill-opacity:1;stroke:none;opacity:1.0"
       d="M 10.375 9 C 7.8788356 9.056 6 10.7233 6 12.4375 C 6 14.1518 7.25 14.15625 7.875 14.15625 C 8.5000001 14.15625 9.125 14.13835 9.125 15.28125 C 9.125 16.42405 9.7499999 17 11 17 C 15.375 17 16 14.1428 16 13 C 16 11.2858 14.125 9 10.375 9 z M 9.5 10 C 9.7761424 10 10 10.223858 10 10.5 C 10 10.776142 9.7761424 11 9.5 11 C 9.2238576 11 9 10.776142 9 10.5 C 9 10.223858 9.2238576 10 9.5 10 z M 11.5 10 C 11.776142 10 12 10.223858 12 10.5 C 12 10.776142 11.776142 11 11.5 11 C 11.223858 11 11 10.776142 11 10.5 C 11 10.223858 11.223858 10 11.5 10 z M 7.5 11 C 7.7761424 11 8 11.223858 8 11.5 C 8 11.776142 7.7761424 12 7.5 12 C 7.2238576 12 7 11.776142 7 11.5 C 7 11.223858 7.2238576 11 7.5 11 z M 13.5 11 C 13.776142 11 14 11.223858 14 11.5 C 14 11.776142 13.776142 12 13.5 12 C 13.223858 12 13 11.776142 13 11.5 C 13 11.223858 13.223858 11 13.5 11 z M 11 14 C 11.552285 14 12 14.447715 12 15 C 12 15.552285 11.552285 16 11 16 C 10.447715 16 10 15.552285 10 15 C 10 14.447715 10.447715 14 11 14 z "
       transform="translate(0,1030.3622)"
       id="path3843" />
  </g>
</svg>

<!-- Created with Inkscape (http://www.inkscape.org/) -->
<svg xmlns="http://www.w3.org/2000/svg" viewBox="0 0 22 22">
 <defs>
  <radialGradient r="11" cy="19" cx="11" gradientTransform="matrix(1,0,0,0.09090909,0,17.272727)" gradientUnits="userSpaceOnUse" id="radialGradient3783">
   <stop style="stop-color:#000;stop-opacity:1"/>
   <stop offset="1" style="stop-color:#000;stop-opacity:0"/>
  </radialGradient>
 </defs>
 <g transform="translate(0,-1030.3622)">
  <path d="m 22 19 c 0 0.552 -4.925 1 -11 1 -6.075 0 -11 -0.448 -11 -1 0 -0.552 4.925 -1 11 -1 6.075 0 11 0.448 11 1 z" transform="matrix(1.1818182,0,0,1,-2,1031.3622)" style="fill:url(#radialGradient3783);opacity:0.25;fill-opacity:1;stroke:none"/>
  <path d="m 0 1033.36 0 14 22 0 0 -7 -1 -6 -8 0 -1 -2 -11 0 c -0.5 0 -1 0.5 -1 1 z" style="fill:#512da8;fill-opacity:1;stroke:none"/>
  <path d="m 1 1032.36 c -0.5 0 -1 0.5 -1 1 l 0 1 c 0 -0.5 0.5 -1 1 -1 l 10 0 1 2 9 0 0 6 0 -1 0 -6 -8 0 -1 -2 z" style="fill:#000;opacity:0.03;fill-opacity:1;stroke:none"/>
  <rect width="10" height="4" x="2" y="1035.36" style="fill:#fffdf0;fill-opacity:1;stroke:none"/>
  <path d="m 22 1035.43 0 14.933 -22 0 0 -14 11 0 1 -2 9 0 c 0.5 0 1 0.533 1 1.067 z" style="fill:#7e57c2;fill-opacity:1;stroke:none"/>
  <path d="m 0 1049.36 0 1 22 0 0 -1 z" style="fill:#000;opacity:0.15;fill-opacity:1;stroke:none"/>
  <path d="m 12 1034.36 -1 2 -11 0 0 1 12 0 1 -2 8 0 c 0.5 0 1 0.5 1 1 l 0 -1 c 0 -0.5 -0.5 -1 -1 -1 z" style="fill:#000;opacity:0.03;fill-opacity:1;stroke:none"/>
  <path d="m 10.375 9 c -2.496 0.056 -4.375 1.723 -4.375 3.438 c 0 1.714 1.25 1.719 1.875 1.719 c 0.625 0 1.25 -0.018 1.25 1.125 c 0 1.143 0.625 1.719 1.875 1.719 c 4.375 0 5 -2.857 5 -4 c 0 -1.714 -1.875 -4 -5.625 -4 z m -0.875 1 c 0.276 0 0.5 0.224 0.5 0.5 c 0 0.276 -0.224 0.5 -0.5 0.5 c -0.276 0 -0.5 -0.224 -0.5 -0.5 c 0 -0.276 0.224 -0.5 0.5 -0.5 z m 2 0 c 0.276 0 0.5 0.224 0.5 0.5 c 0 0.276 -0.224 0.5 -0.5 0.5 c -0.276 0 -0.5 -0.224 -0.5 -0.5 c 0 -0.276 0.224 -0.5 0.5 -0.5 z m -4 1 c 0.276 0 0.5 0.224 0.5 0.5 c 0 0.276 -0.224 0.5 -0.5 0.5 c -0.276 0 -0.5 -0.224 -0.5 -0.5 c 0 -0.276 0.224 -0.5 0.5 -0.5 z m 6 0 c 0.276 0 0.5 0.224 0.5 0.5 c 0 0.276 -0.224 0.5 -0.5 0.5 c -0.276 0 -0.5 -0.224 -0.5 -0.5 c 0 -0.276 0.224 -0.5 0.5 -0.5 z m -2.5 3 c 0.552 0 1 0.448 1 1 c 0 0.552 -0.448 1 -1 1 c -0.552 0 -1 -0.448 -1 -1 c 0 -0.552 0.448 -1 1 -1 z" transform="translate(0,1030.3622)" style="fill:#54398d;opacity:1;fill-opacity:1;stroke:none"/>
 </g>
</svg>
